Gruvbox-Plus-Dark/apps/scalable/disk-burner.svg

<svg xmlns="http://www.w3.org/2000/svg" style="isolation:isolate" width="256" height="256" viewBox="0 0 256 256">
 <defs>
  <filter id="BxpbLP2aDB6ZODeqLB0ZUN7L4a1SeZob" width="400%" height="400%" x="-200%" y="-200%" color-interpolation-filters="sRGB" filterUnits="objectBoundingBox">
   <feGaussianBlur xmlns="http://www.w3.org/2000/svg" in="SourceGraphic" stdDeviation="4.294"/>
   <feOffset xmlns="http://www.w3.org/2000/svg" dx="0" dy="4" result="pf_100_offsetBlur"/>
   <feFlood xmlns="http://www.w3.org/2000/svg" flood-opacity=".4"/>
   <feComposite xmlns="http://www.w3.org/2000/svg" in2="pf_100_offsetBlur" operator="in" result="pf_100_dropShadow"/>
   <feBlend xmlns="http://www.w3.org/2000/svg" in="SourceGraphic" in2="pf_100_dropShadow" mode="normal"/>
  </filter>
 </defs>
 <g filter="url(#BxpbLP2aDB6ZODeqLB0ZUN7L4a1SeZob)">
  <linearGradient id="_lgradient_73" x1=".993" x2=".002" y1=".988" y2=".193" gradientTransform="matrix(244.648309,0,0,228.338396,5.681691,11.95)" gradientUnits="userSpaceOnUse">
   <stop offset="0%" style="stop-color:#3c3836"/>
   <stop offset="100%" style="stop-color:#665c54"/>
  </linearGradient>
  <path fill="url(#_lgradient_73)" d="M 165.690609 11.95 C 239.746317 11.95 250.33 22.507198 250.33 96.493859 L 250.33 155.744653 C 250.33 229.73091 239.746317 240.288396 165.690609 240.288396 L 90.321084 240.288396 C 16.26538 240.288396 5.681691 229.73091 5.681691 155.744653 L 5.681691 96.493859 C 5.681691 22.507198 16.26538 11.95 90.321084 11.95 L 165.690609 11.95 Z"/>
 </g>
 <g opacity=".4">
  <linearGradient id="_lgradient_74" x1=".517" x2=".517" y1="0" y2="1" gradientTransform="matrix(244.65,0,0,228.34,5.68,11.95)" gradientUnits="userSpaceOnUse">
   <stop offset="0%" style="stop-color:#ebdbb2"/>
   <stop offset="12.5%" stop-opacity=".098" style="stop-color:#ebdbb2"/>
   <stop offset="92.5%" stop-opacity=".098" style="stop-color:#282828"/>
   <stop offset="100%" stop-opacity=".498" style="stop-color:#282828"/>
  </linearGradient>
  <path fill="url(#_lgradient_74)" fill-rule="evenodd" d="M 165.06803 11.951234 C 169.395994 11.941409 173.723944 11.990533 178.051908 12.088781 C 181.927398 12.167379 185.802873 12.31475 189.678362 12.540721 C 193.1309 12.737216 196.583423 13.022134 200.026115 13.395476 C 203.085193 13.729518 206.144271 14.181458 209.173842 14.741469 C 211.888645 15.242533 214.57394 15.881143 217.219897 16.6573 C 219.619947 17.354858 221.970814 18.219439 224.242988 19.241215 C 226.357793 20.184394 228.384061 21.304417 230.302129 22.591462 C 232.141505 23.829383 233.862851 25.244151 235.436659 26.80629 C 237.000621 28.378252 238.417046 30.087764 239.656409 31.924995 C 240.944972 33.840824 242.066305 35.864728 243.020409 37.967229 C 244.043389 40.246576 244.908985 42.584873 245.617197 44.972292 C 246.394255 47.615155 247.033606 50.297317 247.535265 53.008956 C 248.095924 56.034984 248.548399 59.080665 248.882828 62.13617 C 249.256611 65.574836 249.541856 69.013506 249.738578 72.462003 C 249.964823 76.323139 250.112361 80.194101 250.200884 84.055237 C 250.289421 88.378131 250.338591 92.701032 250.32876 97.014106 L 250.32876 155.225886 C 250.338591 159.54878 250.289421 163.861854 250.200884 168.184747 C 250.112361 172.05571 249.964823 175.916853 249.738578 179.777981 C 249.541856 183.226485 249.256611 186.674975 248.882828 190.103826 C 248.548399 193.15933 248.095924 196.214835 247.535265 199.240851 C 247.033606 201.942664 246.394255 204.624837 245.617197 207.267703 C 244.908985 209.655115 244.043389 212.003235 243.020409 214.272755 C 242.066305 216.38509 240.944972 218.399156 239.656409 220.314999 C 238.417046 222.152226 237.000621 223.871561 235.436659 225.433697 C 233.862851 226.995832 232.141505 228.410601 230.302129 229.648532 C 228.384061 230.935575 226.357793 232.055598 224.242988 232.998768 C 221.970814 234.020552 219.619947 234.885137 217.219897 235.592507 C 214.57394 236.368672 211.888645 237.007276 209.173842 237.498515 C 206.144271 238.068354 203.085193 238.510465 200.026115 238.844519 C 196.583423 239.21785 193.1309 239.502777 189.678362 239.699269 C 185.802873 239.925235 181.927398 240.072615 178.051908 240.161035 C 173.723944 240.249454 169.395994 240.298581 165.06803 240.288762 L 90.941963 240.288762 C 86.614006 240.298581 82.286049 240.249454 77.9581 240.161035 C 74.08261 240.072615 70.20712 239.925235 66.331638 239.699269 C 62.879108 239.502777 59.426578 239.21785 55.983886 238.844519 C 52.924808 238.510465 49.865733 238.068354 46.836162 237.498515 C 44.121356 237.007276 41.436057 236.368672 38.7901 235.592507 C 36.390053 234.885137 34.039187 234.020552 31.767009 232.998768 C 29.652213 232.055598 27.625943 230.935575 25.707871 229.648532 C 23.868489 228.410601 22.147143 226.995832 20.573343 225.433697 C 19.009377 223.871561 17.592955 222.152226 16.353586 220.314999 C 15.065036 218.399156 13.943701 216.38509 12.989584 214.272755 C 11.966612 212.003235 11.101021 209.655115 10.392811 207.267703 C 9.615746 204.624837 8.976389 201.942664 8.47474 199.240851 C 7.914072 196.214835 7.461604 193.15933 7.127172 190.103826 C 6.753394 186.674975 6.468142 183.226485 6.271417 179.777981 C 6.045183 175.916853 5.897639 172.05571 5.809112 168.184747 C 5.720586 163.861854 5.671405 159.54878 5.681241 155.225886 L 5.681241 97.014106 C 5.671405 92.701032 5.720586 88.378131 5.809112 84.055237 C 5.897639 80.194101 6.045183 76.323139 6.271417 72.462003 C 6.468142 69.013506 6.753394 65.574836 7.127172 62.13617 C 7.461604 59.080665 7.914072 56.034984 8.47474 53.008956 C 8.976389 50.297317 9.615746 47.615155 10.392811 44.972292 C 11.101021 42.584873 11.966612 40.246576 12.989584 37.967229 C 13.943701 35.864728 15.065036 33.840824 16.353586 31.924995 C 17.592955 30.087764 19.009377 28.378252 20.573343 26.80629 C 22.147143 25.244151 23.868489 23.829383 25.707871 22.591462 C 27.625943 21.304417 29.652213 20.184394 31.767009 19.241215 C 34.039187 18.219439 36.390053 17.354858 38.7901 16.6573 C 41.436057 15.881143 44.121356 15.242533 46.836162 14.741469 C 49.865733 14.181458 52.924808 13.729518 55.983886 13.395476 C 59.426578 13.022134 62.879108 12.737216 66.331638 12.540721 C 70.20712 12.31475 74.08261 12.167379 77.9581 12.088781 C 82.286049 11.990533 86.614006 11.941409 90.941963 11.951234 L 165.06803 11.951234 Z M 165.077876 15.959741 C 169.376317 15.949916 173.674759 15.99904 177.973216 16.087463 C 181.799522 16.175886 185.625827 16.323257 189.452133 16.539402 C 192.835809 16.735898 196.219486 17.010992 199.583486 17.384332 C 202.554026 17.698726 205.514751 18.131016 208.445953 18.681203 C 211.023049 19.152792 213.580483 19.761928 216.098564 20.498786 C 218.321569 21.147221 220.495374 21.952852 222.600334 22.896029 C 224.508571 23.750785 226.338116 24.762737 228.069293 25.922059 C 229.692286 27.012609 231.207063 28.260355 232.59398 29.645648 C 233.980897 31.030941 235.230091 32.543956 236.331763 34.165043 C 237.492434 35.894202 238.505568 37.711787 239.361333 39.607968 C 240.305606 41.720292 241.112187 43.891565 241.761369 46.102139 C 242.508934 48.617282 243.108947 51.161898 243.590914 53.735987 C 244.131912 56.663768 244.564709 59.6112 244.889308 62.578282 C 245.263091 65.938355 245.538505 69.308252 245.735227 72.687976 C 245.951626 76.509812 246.10901 80.321821 246.187687 84.143656 C 246.276225 88.437084 246.325394 92.720685 246.325394 97.014106 C 246.325394 97.014106 246.325394 97.014106 246.325394 97.014106 L 246.325394 155.225886 C 246.325394 155.225886 246.325394 155.225886 246.325394 155.225886 C 246.325394 159.519306 246.276225 163.802907 246.187687 168.096328 C 246.10901 171.918164 245.951626 175.739999 245.735227 179.552015 C 245.538505 182.931739 245.263091 186.301629 244.889308 189.671533 C 244.564709 192.628784 244.131912 195.576216 243.590914 198.503994 C 243.108947 201.078094 242.508934 203.622706 241.761369 206.137845 C 241.112187 208.358253 240.305606 210.5197 239.361333 212.63202 C 238.505568 214.528209 237.492434 216.355617 236.331763 218.074952 C 235.230091 219.705853 233.980897 221.218876 232.59398 222.604172 C 231.207063 223.979634 229.692286 225.227385 228.069293 226.317935 C 226.338116 227.477251 224.508571 228.489201 222.600334 229.343951 C 220.495374 230.296956 218.321569 231.092775 216.098564 231.741198 C 213.580483 232.478056 211.023049 233.087202 208.445953 233.558787 C 205.514751 234.108972 202.554026 234.541264 199.583486 234.865483 C 196.219486 235.228995 192.835809 235.513922 189.452133 235.70058 C 185.625827 235.916726 181.799522 236.073926 177.973216 236.152526 C 173.674759 236.25078 169.376317 236.290072 165.077876 236.290072 C 165.077876 236.290072 165.077876 236.290072 165.06803 236.290072 L 90.941963 236.290072 C 90.932125 236.290072 90.932125 236.290072 90.932125 236.290072 C 86.633683 236.290072 82.335234 236.25078 78.036784 236.152526 C 74.210479 236.073926 70.384173 235.916726 66.557868 235.70058 C 63.174195 235.513922 59.790522 235.228995 56.426518 234.865483 C 53.455967 234.541264 50.495253 234.108972 47.564048 233.558787 C 44.986944 233.087202 42.429517 232.478056 39.911433 231.741198 C 37.688439 231.092775 35.514626 230.296956 33.409665 229.343951 C 31.501429 228.489201 29.671886 227.477251 27.940703 226.317935 C 26.31772 225.227385 24.802935 223.979634 23.416022 222.604172 C 22.029109 221.218876 20.779904 219.705853 19.678243 218.074952 C 18.517564 216.355617 17.504428 214.528209 16.648674 212.63202 C 15.704392 210.5197 14.897819 208.358253 14.248626 206.137845 C 13.50107 203.622706 12.901057 201.078094 12.419081 198.503994 C 11.878086 195.576216 11.445291 192.628784 11.120694 189.671533 C 10.746916 186.301629 10.471501 182.931739 10.274776 179.552015 C 10.058378 175.739999 9.900997 171.918164 9.822307 168.096328 C 9.733781 163.802907 9.6846 159.519306 9.6846 155.225886 C 9.6846 155.225886 9.6846 155.225886 9.6846 155.225886 L 9.6846 97.014106 C 9.6846 97.014106 9.6846 97.014106 9.6846 97.014106 C 9.6846 92.720685 9.733781 88.437084 9.822307 84.143656 C 9.900997 80.321821 10.058378 76.509812 10.274776 72.687976 C 10.471501 69.308252 10.746916 65.938355 11.120694 62.578282 C 11.445291 59.6112 11.878086 56.663768 12.419081 53.735987 C 12.901057 51.161898 13.50107 48.617282 14.248626 46.102139 C 14.897819 43.891565 15.704392 41.720292 16.648674 39.607968 C 17.504428 37.711787 18.517564 35.894202 19.678243 34.165043 C 20.779904 32.543956 22.029109 31.030941 23.416022 29.645648 C 24.802935 28.260355 26.31772 27.012609 27.940703 25.922059 C 29.671886 24.762737 31.501429 23.750785 33.409665 22.896029 C 35.514626 21.952852 37.688439 21.147221 39.911433 20.498786 C 42.429517 19.761928 44.986944 19.152792 47.564048 18.681203 C 50.495253 18.131016 53.455967 17.698726 56.426518 17.384332 C 59.790522 17.010992 63.174195 16.735898 66.557868 16.539402 C 70.384173 16.323257 74.210479 16.175886 78.036784 16.087463 C 82.335234 15.99904 86.633683 15.949916 90.932125 15.959741 C 90.932125 15.959741 90.932125 15.959741 90.941963 15.959741 L 165.06803 15.959741 C 165.077876 15.959741 165.077876 15.959741 165.077876 15.959741 Z"/>
 </g>
 <g filter="url(#mKFQcPkqXURqWmQnnjSxEeV0Jo2d9vkP)">
  <path fill="#d5c4a1" d="M 128 82.803571 C 103.590987 82.803571 83.803571 102.590987 83.803571 127 C 83.803571 151.409013 103.590987 171.196429 128 171.196429 C 152.409013 171.196429 172.196429 151.409013 172.196429 127 C 172.196429 102.590987 152.409013 82.803571 128 82.803571 Z M 128 109.321429 C 137.763877 109.321429 145.678571 117.236123 145.678571 127 C 145.678571 136.763877 137.763877 144.678571 128 144.678571 C 118.236123 144.678571 110.321429 136.763877 110.321429 127 C 110.321429 117.236123 118.236123 109.321429 128 109.321429 Z"/>
  <radialGradient id="_rgradient_0" cx=".5" cy=".5" r=".5" fx=".5" fy=".5" gradientTransform="matrix(165,0,0,165,45.5,44.5)" gradientUnits="userSpaceOnUse">
   <stop offset="0%" style="stop-color:#ebdbb2"/>
   <stop offset="100%" style="stop-color:#a89984"/>
  </radialGradient>
  <path fill="url(#_rgradient_0)" d="M 128 44.5 C 82.295003 44.5 45.5 81.295003 45.5 127 C 45.5 172.705003 82.295003 209.5 128 209.5 C 173.705003 209.5 210.5 172.705003 210.5 127 C 210.5 81.295003 173.705003 44.5 128 44.5 Z M 128 91.642857 C 147.527215 91.642857 163.357143 107.47279 163.357143 127 C 163.357143 146.527215 147.527215 162.357143 128 162.357143 C 108.47279 162.357143 92.642857 146.527215 92.642857 127 C 92.642857 107.47279 108.47279 91.642857 128 91.642857 Z"/>
  <g opacity=".2">
   <path fill="#ebdbb2" d="M 128 44.5 C 82.295003 44.5 45.5 81.295003 45.5 127 C 45.5 127.334584 45.533249 127.660098 45.551793 127.989816 C 46.587589 83.198923 82.951251 47.446429 128 47.446429 C 173.044916 47.446429 209.412241 83.192764 210.453962 127.978306 C 210.472395 127.652433 210.5 127.330639 210.5 127 C 210.5 81.295003 173.705003 44.5 128 44.5 Z M 92.79248 129.934919 C 92.701315 130.918373 92.651394 131.905222 92.642857 132.892857 C 92.657547 133.384393 92.682488 133.875569 92.717669 134.366071 C 92.732196 133.870691 92.757143 133.375682 92.79248 132.881348 C 94.318055 151.196684 109.621238 165.289218 128 165.303571 C 146.370636 165.29023 161.670655 151.210598 163.20752 132.904367 C 163.250646 133.484798 163.27942 134.066207 163.293841 134.648054 C 163.329471 134.063599 163.350579 133.478357 163.357143 132.892857 C 163.34796 131.912899 163.298044 130.933749 163.20752 129.957938 C 161.670655 148.26417 146.370636 162.343801 128 162.357143 C 109.621238 162.34279 94.318055 148.250255 92.79248 129.934919 Z"/>
  </g>
 </g>
 <defs>
  <filter id="mKFQcPkqXURqWmQnnjSxEeV0Jo2d9vkP" width="400%" height="400%" x="-200%" y="-200%" color-interpolation-filters="sRGB" filterUnits="objectBoundingBox">
   <feGaussianBlur xmlns="http://www.w3.org/2000/svg" in="SourceGraphic" stdDeviation="4.294"/>
   <feOffset xmlns="http://www.w3.org/2000/svg" dx="0" dy="4" result="pf_100_offsetBlur"/>
   <feFlood xmlns="http://www.w3.org/2000/svg" flood-opacity=".4"/>
   <feComposite xmlns="http://www.w3.org/2000/svg" in2="pf_100_offsetBlur" operator="in" result="pf_100_dropShadow"/>
   <feBlend xmlns="http://www.w3.org/2000/svg" in="SourceGraphic" in2="pf_100_dropShadow" mode="normal"/>
  </filter>
 </defs>
 <defs>
  <filter id="tzX0RnrPsFE1ZnkV935lbSFvW1lFPJWu" width="400%" height="400%" x="-200%" y="-200%" color-interpolation-filters="sRGB" filterUnits="objectBoundingBox">
   <feGaussianBlur xmlns="http://www.w3.org/2000/svg" stdDeviation="4.294"/>
  </filter>
 </defs>
 <g opacity=".4" filter="url(#tzX0RnrPsFE1ZnkV935lbSFvW1lFPJWu)">
  <path d="M 126.32 240.288391 L 126 211.493858 C 126 137.507198 136.583689 126 210.639397 126 L 248.648308 126"/>
 </g>
 <linearGradient id="_lgradient_75" x1="0" x2="0" y1="0" y2="1" gradientTransform="matrix(121.984949,0,0,114.142294,128.7,126.446097)" gradientUnits="userSpaceOnUse">
  <stop offset="0%" style="stop-color:#fabd2f"/>
  <stop offset="50%" style="stop-color:#fe8019"/>
  <stop offset="100%" style="stop-color:#fe8019"/>
 </linearGradient>
 <path fill="url(#_lgradient_75)" d="M 146.981133 240.532816 L 129.235454 240.394579 L 128.875364 232.288958 C 128.427224 222.201426 128.898364 189.860369 129.607224 182.051733 C 130.891544 167.903799 133.047274 158.739611 136.919594 150.966242 C 144.316411 136.117749 157.752076 129.780038 186.519013 127.569798 C 189.981553 127.303761 205.835377 126.942096 221.749745 126.766096 L 250.684949 126.446097 L 250.677945 150.616882 C 250.66795 182.807833 249.912495 193.581553 246.801434 205.899988 C 242.94608 221.165552 235.295628 230.075769 221.947499 234.846575 C 208.545888 239.636499 192.095746 240.884256 146.981623 240.532816 L 146.981133 240.532816 Z"/>
 <path fill="#ebdbb2" d="M 197.80402 148.520999 C 176.331516 157.270999 163.44277 177.780998 163.44277 192.270999 C 163.44277 206.598246 174.716275 218.223496 188.718899 218.495631 C 181.721693 218.355708 176.084765 212.556994 176.084765 205.395999 C 176.084765 198.147235 182.527485 187.895999 193.265398 183.520999 C 193.265398 198.833499 204.7944 201.047251 201.855615 209.770999 C 200.189355 214.717641 196.124976 218.472083 189.07887 218.512421 C 189.120877 218.512638 189.167674 218.517244 189.212652 218.517244 C 203.445404 218.517244 211.632774 210.964234 214.983151 201.017244 C 220.860539 183.568864 197.802535 179.142244 197.802535 148.517244 L 197.80402 148.520999 Z"/>
</svg>

<svg width="256" height="256" style="isolation:isolate" version="1.1" viewBox="0 0 256 256" xmlns="http://www.w3.org/2000/svg">
  <defs>
    <filter id="a" x="-.04224" y="-.0452" width="1.084" height="1.108" color-interpolation-filters="sRGB">
      <feGaussianBlur in="SourceGraphic" stdDeviation="4.294"/>
      <feOffset dy="4" result="pf_100_offsetBlur"/>
      <feFlood flood-opacity=".4"/>
      <feComposite in2="pf_100_offsetBlur" operator="in" result="pf_100_dropShadow"/>
      <feBlend in="SourceGraphic" in2="pf_100_dropShadow"/>
    </filter>
    <linearGradient id="b" x1=".5002" x2=".5002" y2="1" gradientTransform="matrix(244,0,0,228,5.981,12.12)" gradientUnits="userSpaceOnUse">
      <stop stop-color="#504945" offset="0"/>
      <stop stop-color="#3c3836" offset="1"/>
    </linearGradient>
    <linearGradient id="linearGradient31" x1=".5002" x2=".5002" y2="1" gradientTransform="matrix(244,0,0,228,5.986,12)" gradientUnits="userSpaceOnUse">
      <stop stop-color="#928374" offset="0"/>
      <stop stop-color="#928374" stop-opacity=".09804" offset=".1"/>
      <stop stop-opacity=".09804" offset=".9"/>
      <stop stop-opacity=".498" offset="1"/>
    </linearGradient>
    <filter id="wBb1wNSgSQ0c8DHhwpBs3sPy9gWOL0Dc" x="-.08402" y="-.09018" width="1.168" height="1.18" color-interpolation-filters="sRGB">
      <feGaussianBlur stdDeviation="4.294"/>
    </filter>
    <linearGradient id="b-9-6" x1=".6312" x2=".6312" y1=".4998" y2=".9998" gradientTransform="matrix(244,0,0,228,5.983,12)" gradientUnits="userSpaceOnUse">
      <stop stop-color="#fe8019" offset="0"/>
      <stop stop-color="#d65d0e" offset="1"/>
    </linearGradient>
  </defs>
  <g transform="translate(9.09e-6 -.12)" filter="url(#a)" style="isolation:isolate">
    <path d="m165 12.12c72 0 85 15 85 87v56c0 70-13 85-85 85h-74c-72 0-85-15-85-85v-56c0-72 13-87 85-87z" fill="url(#b)"/>
  </g>
  <g transform="translate(-5.532e-6 .498)" filter="url(#Fwjgexsm1nkXpQST70gM7rHBPITi8gMH)">
    <path d="m128 82.8c-24.41 0-44.2 19.79-44.2 44.2s19.79 44.2 44.2 44.2 44.2-19.79 44.2-44.2-19.79-44.2-44.2-44.2zm0 26.52c9.764 0 17.68 7.915 17.68 17.68s-7.915 17.68-17.68 17.68-17.68-7.915-17.68-17.68 7.915-17.68 17.68-17.68z" fill="#d5c4a1"/>
    <radialGradient id="_rgradient_0" cx=".5" cy=".5" r=".5" gradientTransform="matrix(165,0,0,165,45.5,44.5)" gradientUnits="userSpaceOnUse">
      <stop stop-color="#ebdbb2" offset="0"/>
      <stop stop-color="#a89984" offset="1"/>
    </radialGradient>
    <path d="m128 44.5c-45.7 0-82.5 36.8-82.5 82.5s36.8 82.5 82.5 82.5 82.5-36.8 82.5-82.5-36.8-82.5-82.5-82.5zm0 47.14c19.53 0 35.36 15.83 35.36 35.36s-15.83 35.36-35.36 35.36-35.36-15.83-35.36-35.36 15.83-35.36 35.36-35.36z" fill="url(#_rgradient_0)"/>
    <g opacity=".2">
      <path d="m128 44.5c-45.7 0-82.5 36.8-82.5 82.5 0 0.335 0.033 0.66 0.052 0.99 1.036-44.79 37.4-80.54 82.45-80.54 45.04 0 81.41 35.75 82.45 80.53 0.018-0.326 0.046-0.647 0.046-0.978 0-45.7-36.8-82.5-82.5-82.5zm-35.21 85.44c-0.091 0.983-0.141 1.97-0.149 2.958 0.015 0.491 0.039 0.983 0.075 1.473 0.014-0.495 0.039-0.99 0.074-1.485 1.526 18.32 16.83 32.41 35.21 32.42 18.37-0.014 33.67-14.09 35.21-32.4 0.043 0.581 0.071 1.162 0.086 1.744 0.035-0.584 0.057-1.17 0.063-1.755-9e-3 -0.98-0.059-1.959-0.149-2.935-1.537 18.31-16.84 32.39-35.21 32.4-18.38-0.014-33.68-14.11-35.21-32.42z" fill="#ebdbb2"/>
    </g>
  </g>
  <g transform="translate(-.0009712 .04561)" style="isolation:isolate">
    <g filter="url(#wBb1wNSgSQ0c8DHhwpBs3sPy9gWOL0Dc)" opacity=".4">
      <path d="m126.3 240.3-0.32-28.79c0-73.99 10.58-85.49 84.64-85.49h38.01"/>
    </g>
    <path d="m250 126-28.95 0.3203c-78.35 0.8665-91.85 4.404-92.94 79.55-0.3323 11.37-0.0757 22.72 0.4277 34.08 1.9e-4 4e-3 36.19 4e-3 36.45 4e-3 72 0 85-15 85-85z" fill="url(#b-9-6)" style="isolation:isolate"/>
    <path d="m200.5 147.3c-21.47 8.75-34.36 29.26-34.36 43.75 0 14.33 11.27 25.95 25.28 26.22-6.997-0.1399-12.63-5.939-12.63-13.1 0-7.249 6.443-17.5 17.18-21.88 0 15.31 11.53 17.53 8.59 26.25-1.666 4.947-5.731 8.701-12.78 8.741 0.042 2.2e-4 0.0888 5e-3 0.1338 5e-3 14.23 0 22.42-7.553 25.77-17.5 5.877-17.45-17.18-21.88-17.18-52.5z" fill="#ebdbb2" style="isolation:isolate"/>
  </g>
  <g transform="translate(9.09e-6 -.12)" opacity=".4" style="isolation:isolate">
    <path transform="translate(-.004996 .116)" d="m91 12c-72 0-85 15-85 87v56c0 70 13 85 85 85h74c72 0 85-15 85-85v-56c0-72-13-87-85-87zm0 4h74c68 0 80 15 80 83v56c0 66-12 81-80 81h-74c-68 0-80-15-80-81v-56c0-68 12-83 80-83z" fill="url(#linearGradient31)" opacity="1"/>
  </g>
  <defs>
    <filter id="Fwjgexsm1nkXpQST70gM7rHBPITi8gMH" x="-.06246" y="-.06246" width="1.125" height="1.149" color-interpolation-filters="sRGB">
      <feGaussianBlur in="SourceGraphic" stdDeviation="4.294"/>
      <feOffset dx="0" dy="4" result="pf_100_offsetBlur"/>
      <feFlood flood-opacity=".4"/>
      <feComposite in2="pf_100_offsetBlur" operator="in" result="pf_100_dropShadow"/>
      <feBlend in="SourceGraphic" in2="pf_100_dropShadow"/>
    </filter>
  </defs>
</svg>
